assets/icons/qvision/wb_incandescent.svg

<svg xmlns="http://www.w3.org/2000/svg" height="24" viewBox="0 0 24 24" width="24"><path d="M0 0h24v24H0z" fill="none"/><path d="M3.55 18.54l1.41 1.41 1.79-1.8-1.41-1.41-1.79 1.8zM11 22.45h2V19.5h-2v2.95zM4 10.5H1v2h3v-2zm11-4.19V1.5H9v4.81C7.21 7.35 6 9.28 6 11.5c0 3.31 2.69 6 6 6s6-2.69 6-6c0-2.22-1.21-4.15-3-5.19zm5 4.19v2h3v-2h-3zm-2.76 7.66l1.79 1.8 1.41-1.41-1.8-1.79-1.4 1.4z"/></svg>

<svg width="24" height="24" viewBox="0 0 24 24" fill="none" xmlns="http://www.w3.org/2000/svg">
<g clip-path="url(#clip0_147_3779)">
<path d="M3.55 18.54L4.96 19.95L6.75 18.15L5.34 16.74L3.55 18.54ZM11 22.45H13V19.5H11V22.45ZM4 10.5H1V12.5H4V10.5ZM15 6.31V1.5H9V6.31C7.21 7.35 6 9.28 6 11.5C6 14.81 8.69 17.5 12 17.5C15.31 17.5 18 14.81 18 11.5C18 9.28 16.79 7.35 15 6.31ZM20 10.5V12.5H23V10.5H20ZM17.24 18.16L19.03 19.96L20.44 18.55L18.64 16.76L17.24 18.16Z" fill="#323232"/>
</g>
<defs>
<clipPath id="clip0_147_3779">
<rect width="24" height="24" fill="white"/>
</clipPath>
</defs>
</svg>
